dist/files/common/logo-white.svg

<svg width="143" height="44" viewBox="0 0 143 44" fill="none" xmlns="http://www.w3.org/2000/svg">
<path d="M58.2207 6.76899H54.6068V22.0123H51.2569V6.76899H47.6431V3.82597H58.2223V6.76899H58.2207Z" fill="white"/>
<path d="M63.1278 3.82582V11.3397H66.8999V3.82582H70.2499V22.0136H66.8999V14.2842H63.1278V22.0136H59.7778V3.82582H63.1278Z" fill="white"/>
<path d="M72.572 22.0121V3.82582H82.1748V6.76884H75.922V11.2919H80.565V14.2349H75.922V19.0691H82.1748V22.0121H72.572Z" fill="white"/>
<path d="M106.05 22.0121H101.829L99.7444 9.52035L97.6613 22.0121H93.4404L89.6155 3.82433H93.0182L95.4989 16.9624L97.8988 3.82433H101.592L103.992 16.9624L106.472 3.82433H109.875L106.05 22.0121Z" fill="white"/>
<path d="M116.893 18.0876H112.778L111.881 22.0121H108.452L113.2 3.82433H116.471L121.22 22.0121H117.791L116.893 18.0876ZM116.234 15.1446L114.835 9.01763L113.436 15.1446H116.232H116.234Z" fill="white"/>
<path d="M131.904 22.0121H122.698V3.82582H126.074V19.0691H131.904V22.0121Z" fill="white"/>
<path d="M142.668 22.0121H133.461V3.82582H136.838V19.0691H142.668V22.0121Z" fill="white"/>
<path d="M38.5828 0H29.1977C28.6171 0 28.1421 0.426417 28.1421 0.957567V4.64719H25.5624V0.957567C25.5624 0.426417 25.0923 0 24.5068 0H15.1283C14.5428 0 14.0727 0.426417 14.0727 0.957567V4.64719H11.493V0.957567C11.493 0.426417 11.018 0 10.4374 0H1.05562C0.475028 0 0 0.426417 0 0.957567V33.7079C0 34.0669 0.22102 34.3916 0.569043 34.5592L9.94754 39.0089L19.326 43.4586C19.3359 43.4631 19.3425 43.4676 19.3524 43.4676C19.3838 43.4825 19.4151 43.496 19.4481 43.5065C19.4844 43.5214 19.5273 43.5349 19.5701 43.5394C19.6015 43.5483 19.6394 43.5543 19.6757 43.5588C19.7235 43.5633 19.7714 43.5678 19.8176 43.5678C19.8637 43.5678 19.9132 43.5633 19.9594 43.5588C20.0815 43.5439 20.1969 43.5109 20.3074 43.4586L20.3652 43.4301L29.6859 39.0089L39.071 34.5592C39.419 34.3916 39.6351 34.0669 39.6351 33.7079V0.957567C39.6351 0.426417 39.1601 0 38.5795 0H38.5828ZM37.5272 33.1273L30.2533 36.5776V1.91364H37.5272V33.1273ZM28.1437 37.583L20.8748 41.0332V6.56083H28.1437V37.583ZM2.10958 1.91364H9.38344V36.5776L2.10958 33.1273V1.91364ZM18.7636 41.0332L11.4947 37.583V6.56083H18.7636V41.0332ZM16.1839 1.91364H23.4528V4.6457H16.1839V1.91364Z" fill="white"/>
<path d="M5.74805 3.99635C4.94149 3.99635 4.28833 4.58884 4.28833 5.32048C4.28833 6.05212 4.94149 6.64462 5.74805 6.64462C6.55461 6.64462 7.20777 6.05212 7.20777 5.32048C7.20777 4.58884 6.55461 3.99635 5.74805 3.99635Z" fill="white"/>
<path d="M33.8918 6.64462C34.6984 6.64462 35.3516 6.05212 35.3516 5.32048C35.3516 4.58884 34.6984 3.99635 33.8918 3.99635C33.0853 3.99635 32.4321 4.58884 32.4321 5.32048C32.4321 6.05212 33.0853 6.64462 33.8918 6.64462Z" fill="white"/>
<path d="M15.1284 8.73032C14.3219 8.73032 13.6687 9.32282 13.6687 10.0545C13.6687 10.7861 14.3219 11.3786 15.1284 11.3786C15.935 11.3786 16.5881 10.7861 16.5881 10.0545C16.5881 9.32282 15.935 8.73032 15.1284 8.73032Z" fill="white"/>
<path d="M24.51 8.73032C23.7035 8.73032 23.0503 9.32282 23.0503 10.0545C23.0503 10.7861 23.7035 11.3786 24.51 11.3786C25.3166 11.3786 25.9697 10.7861 25.9697 10.0545C25.9697 9.32282 25.3166 8.73032 24.51 8.73032Z" fill="white"/>
</svg>

<svg xmlns="http://www.w3.org/2000/svg" fill="none" viewBox="0 0 143 44"><path fill="#fff" d="M58.22 6.769h-3.613v15.243h-3.35V6.77h-3.614V3.826h10.58v2.943zM63.128 3.826v7.514H66.9V3.826h3.35v18.188H66.9v-7.73h-3.772v7.73h-3.35V3.826zM72.572 22.012V3.826h9.603v2.943h-6.253v4.523h4.643v2.943h-4.643v4.834h6.253v2.943zM106.05 22.012h-4.221L99.744 9.52l-2.083 12.492h-4.22L89.614 3.824h3.403l2.48 13.138 2.4-13.138h3.694l2.4 13.138 2.48-13.138h3.403zM116.893 18.088h-4.115l-.897 3.924h-3.429L113.2 3.824h3.271l4.749 18.188h-3.429zm-.659-2.943-1.399-6.127-1.399 6.127h2.798M131.904 22.012h-9.206V3.826h3.376v15.243h5.83zM142.668 22.012h-9.207V3.826h3.377v15.243h5.83zM38.583 0h-9.385c-.58 0-1.056.426-1.056.958v3.69h-2.58V.957c0-.532-.47-.958-1.055-.958h-9.379c-.585 0-1.055.426-1.055.958v3.69h-2.58V.957c0-.532-.475-.958-1.056-.958H1.056C.475 0 0 .426 0 .958v32.75c0 .359.221.684.569.851l9.379 4.45 9.378 4.45q.014.007.026.009a1 1 0 0 0 .096.038c.036.015.08.029.122.033q.05.014.106.02.072.008.142.009.07-.001.141-.01.183-.02.348-.1l.058-.028 9.32-4.421 9.386-4.45c.348-.167.564-.492.564-.851V.958C39.635.426 39.16 0 38.58 0zm-1.056 33.127-7.274 3.45V1.915h7.274zm-9.383 4.456-7.27 3.45V6.561h7.27zM2.11 1.913h7.273v34.665l-7.273-3.45zm16.654 39.12-7.27-3.45V6.561h7.27zm-2.58-39.12h7.269v2.733h-7.27z"/><path fill="#fff" d="M5.748 3.996c-.807 0-1.46.593-1.46 1.324s.653 1.325 1.46 1.325 1.46-.593 1.46-1.325c0-.731-.653-1.324-1.46-1.324M33.892 6.645c.806 0 1.46-.593 1.46-1.325 0-.731-.654-1.324-1.46-1.324-.807 0-1.46.593-1.46 1.324s.653 1.325 1.46 1.325M15.128 8.73c-.806 0-1.46.593-1.46 1.325 0 .731.654 1.324 1.46 1.324.807 0 1.46-.593 1.46-1.324s-.653-1.325-1.46-1.325M24.51 8.73c-.807 0-1.46.593-1.46 1.325 0 .731.653 1.324 1.46 1.324s1.46-.593 1.46-1.324-.653-1.325-1.46-1.325"/></svg>
